X:124
T:Heather Breeze (reel), The 
T:Heathery Breeze, Heather Braes
B:CRE2.149 (Leoithne an Fhraoigh)
F:file ID: cre.2/124heath_b
N:This version is from Tommy Peoples, who must have added the 
third part (as he ikes to do!)
L:1/8
M:C
R:reel
%Q:180
K:G
F||DGBG dGBG|DFA2 cFAF|DGBG dGBG|(3Bcd cA BGGF|
"5"DGBG dGBG|DFAF cFAF|DGBG dGBG|(3Bcd cA G2||
Bd|"9"g2 (3agf gbag|(3fgf fe fgaf|dggf gbag|fdcA BGG2|
"13"g2 (3agf gbag|(3fgf fe fgaf|dggf (3gab ag|fdcA G3||
D|"17"G2DG FGDE|=F2CB, A,B,CD|G2DC B,CDg|fdcA BGGD|
"21"G2DG FGDE|=F2CB, A,B,CD|G2DC B,CDg|fdcA G4|]

%%%

